src/assets/filled/Profile2user.svg

<svg width="24" height="24" viewBox="0 0 24 24"  xmlns="http://www.w3.org/2000/svg">
<path d="M9 2C6.38 2 4.25 4.13 4.25 6.75C4.25 9.32 6.26 11.4 8.88 11.49C8.96 11.48 9.04 11.48 9.1 11.49C9.12 11.49 9.13 11.49 9.15 11.49C9.16 11.49 9.16 11.49 9.17 11.49C11.73 11.4 13.74 9.32 13.75 6.75C13.75 4.13 11.62 2 9 2Z" />
<path d="M14.08 14.1499C11.29 12.2899 6.73996 12.2899 3.92996 14.1499C2.65996 14.9999 1.95996 16.1499 1.95996 17.3799C1.95996 18.6099 2.65996 19.7499 3.91996 20.5899C5.31996 21.5299 7.15996 21.9999 8.99996 21.9999C10.84 21.9999 12.68 21.5299 14.08 20.5899C15.34 19.7399 16.04 18.5999 16.04 17.3599C16.03 16.1299 15.34 14.9899 14.08 14.1499Z" />
<path d="M19.9901 7.3401C20.1501 9.2801 18.7701 10.9801 16.8601 11.2101C16.8501 11.2101 16.8501 11.2101 16.8401 11.2101H16.8101C16.7501 11.2101 16.6901 11.2101 16.6401 11.2301C15.6701 11.2801 14.7801 10.9701 14.1101 10.4001C15.1401 9.4801 15.7301 8.1001 15.6101 6.6001C15.5401 5.7901 15.2601 5.0501 14.8401 4.4201C15.2201 4.2301 15.6601 4.1101 16.1101 4.0701C18.0701 3.9001 19.8201 5.3601 19.9901 7.3401Z" />
<path d="M21.99 16.5899C21.91 17.5599 21.29 18.3999 20.25 18.9699C19.25 19.5199 17.99 19.7799 16.74 19.7499C17.46 19.0999 17.88 18.2899 17.96 17.4299C18.06 16.1899 17.47 14.9999 16.29 14.0499C15.62 13.5199 14.84 13.0999 13.99 12.7899C16.2 12.1499 18.98 12.5799 20.69 13.9599C21.61 14.6999 22.08 15.6299 21.99 16.5899Z" />
</svg>

<?xml version="1.0" encoding="UTF-8"?>
<svg width="24" height="24" viewBox="0 0 24 24" xmlns="http://www.w3.org/2000/svg">
 <path d="m9 2c-2.62 0-4.75 2.13-4.75 4.75 0 2.57 2.01 4.65 4.63 4.74 0.08-0.01 0.16-0.01 0.22 0h0.05 0.02c2.56-0.09 4.57-2.17 4.58-4.74 0-2.62-2.13-4.75-4.75-4.75z"/>
 <path d="m14.08 14.15c-2.79-1.86-7.34-1.86-10.15 0-1.27 0.85-1.97 2-1.97 3.23s0.7 2.37 1.96 3.21c1.4 0.94 3.24 1.41 5.08 1.41 1.84 0 3.68-0.47 5.08-1.41 1.26-0.85 1.96-1.99 1.96-3.23-0.01-1.23-0.7-2.37-1.96-3.21z"/>
 <path d="m19.99 7.3401c0.16 1.94-1.22 3.64-3.13 3.87h-0.02-0.03c-0.06 0-0.12 0-0.17 0.02-0.97 0.05-1.86-0.26-2.53-0.83 1.03-0.92 1.62-2.3 1.5-3.8-0.07-0.81-0.35-1.55-0.77-2.18 0.38-0.19 0.82-0.31 1.27-0.35 1.96-0.17 3.71 1.29 3.88 3.27z"/>
 <path d="m21.99 16.59c-0.08 0.97-0.7 1.81-1.74 2.38-1 0.55-2.26 0.81-3.51 0.78 0.72-0.65 1.14-1.46 1.22-2.32 0.1-1.24-0.49-2.43-1.67-3.38-0.67-0.53-1.45-0.95-2.3-1.26 2.21-0.64 4.99-0.21 6.7 1.17 0.92 0.74 1.39 1.67 1.3 2.63z"/>
</svg>
